sources/design/Outline/ഽ.svg

<svg:svg xmlns:cc="http://creativecommons.org/ns#" xmlns:dc="http://purl.org/dc/elements/1.1/" xmlns:inkscape="http://www.inkscape.org/namespaces/inkscape" xmlns:rdf="http://www.w3.org/1999/02/22-rdf-syntax-ns#" xmlns:sodipodi="http://sodipodi.sourceforge.net/DTD/sodipodi-0.dtd" xmlns:svg="http://www.w3.org/2000/svg" xml:space="preserve" width="1000" height="1000" version="1.1" style="clip-rule:evenodd;fill-rule:evenodd;image-rendering:optimizeQuality;shape-rendering:geometricPrecision;text-rendering:geometricPrecision" viewBox="0 0 1000 1000" id="svg10" sodipodi:docname="ഽ.svg" inkscape:version="1.0.2 (e86c870879, 2021-01-15)"><svg:metadata id="metadata14"><rdf:RDF><cc:Work rdf:about=""><dc:format>image/svg+xml</dc:format><dc:type rdf:resource="http://purl.org/dc/dcmitype/StillImage" /><dc:title /></cc:Work></rdf:RDF></svg:metadata><sodipodi:namedview pagecolor="#ffffff" bordercolor="#666666" borderopacity="1" objecttolerance="10" gridtolerance="10" guidetolerance="10" inkscape:pageopacity="0" inkscape:pageshadow="2" inkscape:window-width="1920" inkscape:window-height="1007" id="namedview12" showgrid="false" inkscape:zoom="0.6002692" inkscape:cx="300.73619" inkscape:cy="552.64195" inkscape:window-x="1920" inkscape:window-y="0" inkscape:window-maximized="1" inkscape:current-layer="svg10" showguides="true" inkscape:guide-bbox="true" inkscape:document-rotation="0" inkscape:pagecheckerboard="0"><sodipodi:guide position="0,1000" orientation="0,1" id="guide16" inkscape:label="" inkscape:locked="true" inkscape:color="rgb(0,0,255)" /><sodipodi:guide position="1763.3122,2036.1693" orientation="1000,0" id="guide18" /><sodipodi:guide position="0,200" orientation="0,1" id="guide20" inkscape:label="base" inkscape:locked="true" inkscape:color="rgb(0,0,255)" /><inkscape:grid type="xygrid" id="grid24" originx="-473.37552" originy="-489.69235" /><sodipodi:guide position="0,0" orientation="0,1" id="guide34" inkscape:label="bottom" inkscape:locked="true" inkscape:color="rgb(0,0,255)" /><sodipodi:guide position="225.05109,1693.3186" orientation="0,1" id="guide44" inkscape:label="" inkscape:locked="false" inkscape:color="rgb(0,0,255)" /><sodipodi:guide position="0,900" orientation="0,1" id="guide46" inkscape:label="" inkscape:locked="true" inkscape:color="rgb(0,0,255)" /><sodipodi:guide position="711.49383,847.17001" orientation="-1,0" id="guide841" inkscape:label="width" inkscape:locked="false" inkscape:color="rgb(0,0,255)" /></sodipodi:namedview>
 <svg:defs id="defs4"><inkscape:path-effect effect="fillet_chamfer" id="path-effect853" is_visible="true" lpeversion="1" satellites_param="F,0,0,1,0,28.899967,0,1 @ F,0,0,1,0,21.099043,0,1 @ F,0,0,1,0,0,0,1 @ F,0,0,1,0,0,0,1 @ F,0,0,1,0,0,0,1 @ F,0,0,1,0,0,0,1 @ F,0,0,1,0,0,0,1 @ F,0,0,1,0,0,0,1 @ F,0,0,1,0,0,0,1 @ F,0,0,1,0,0,0,1 @ F,0,0,1,0,0,0,1 @ F,0,0,1,0,0,0,1 @ F,0,0,1,0,0,0,1 @ F,0,0,1,0,21.938573,0,1 @ F,0,0,1,0,24.858465,0,1 @ F,0,0,1,0,0,0,1 @ F,0,0,1,0,0,0,1 @ F,0,0,1,0,0,0,1 @ F,0,0,1,0,0,0,1 @ F,0,0,1,0,0,0,1 @ F,0,0,1,0,0,0,1 @ F,0,0,1,0,0,0,1 @ F,0,0,1,0,0,0,1 @ F,0,0,1,0,0,0,1 @ F,0,0,1,0,0,0,1 @ F,0,0,1,0,0,0,1" unit="px" method="auto" mode="F" radius="0" chamfer_steps="1" flexible="false" use_knot_distance="true" apply_no_radius="true" apply_with_radius="true" only_selected="true" hide_knots="false" /><inkscape:path-effect effect="spiro" id="path-effect852" is_visible="true" lpeversion="1" /><inkscape:path-effect effect="spiro" id="path-effect850" is_visible="true" lpeversion="1" /><inkscape:path-effect effect="spiro" id="path-effect851" is_visible="true" lpeversion="1" />
  <svg:style type="text/css" id="style2">
   
    .fil0 {fill:#EF7F1A;fill-rule:nonzero}
   
  </svg:style>
 <inkscape:path-effect effect="spiro" id="path-effect1214" is_visible="true" lpeversion="1" /><inkscape:path-effect effect="spiro" id="path-effect1195" is_visible="true" lpeversion="1" /><inkscape:path-effect effect="spiro" id="path-effect992" is_visible="true" lpeversion="1" /><inkscape:path-effect effect="spiro" id="path-effect1060" is_visible="true" lpeversion="1" /><inkscape:path-effect effect="spiro" id="path-effect1047" is_visible="true" lpeversion="1" /><inkscape:path-effect effect="spiro" id="path-effect1085" is_visible="true" lpeversion="1" /><inkscape:path-effect effect="spiro" id="path-effect1286" is_visible="true" lpeversion="1" /><inkscape:path-effect effect="spiro" id="path-effect1305" is_visible="true" lpeversion="1" /></svg:defs>
 
<svg:g id="path849"><svg:path style="color:#000000;clip-rule:nonzero;fill:#1a5fb4;fill-rule:nonzero;stroke-linecap:round;stroke-linejoin:round;-inkscape-stroke:none;paint-order:fill stroke markers;shape-rendering:auto" d="M 508.81445,-53.275391 C 502.91939,-53.444013 496.95866,-53.401355 490.93164,-53.111328 C 430.64501,-50.210269 373.15073,-21.336611 335.12109,25.722656 C 304.23021,63.948164 288.56505,110.2454 281.27734,155.41992 C 274.01885999999996,200.41326999999998 274.65751,244.49197999999998 274.93944999999997,286.55078000000003 C 275.42422999999997,358.86707 275.29380999999995,431.27283 275.17382999999995,503.76367000000005 C 275.00251999999995,607.2677000000001 274.74953999999997,709.8134200000001 261.51171999999997,809.8457000000001 C 258.35249,833.71855 254.36245999999997,855.2723500000001 246.07421999999997,872.3925800000001 C 241.95589999999996,880.89939 236.78249999999997,888.33873 230.88866999999996,894.02539 C 225.05840999999995,899.65072 218.22931999999997,903.74042 211.64843999999997,905.67969 C 200.51352999999997,908.96095 185.89470999999998,906.03979 176.87499999999997,898.73242 C 170.86198999999996,893.86095 166.02518999999998,886.2344800000001 163.95897999999997,878.1543 C 161.32683999999998,867.8609 156.39023999999998,854.7403800000001 140.70507999999995,847.18555 C 125.01991999999996,839.63071 107.01577999999995,845.85892 97.33789099999996,853.20898 L 4.4804687,923.73242 C -19.417092,941.8819100000001 -25.354859,978.77319 -3.40625,1002.3398000000001 C 16.570784,1023.7896000000001 40.686522,1041.2609 67.453125,1053.4531000000002 C 102.96016,1069.6267000000003 142.41087,1076.2230000000002 181.24805,1072.4805000000001 C 238.67674,1066.9464 291.16122,1039.2916 331.17969,1000.3008000000001 C 371.01606,961.4874100000001 398.21189,912.4963700000001 414.98437,861.4492200000001 C 455.08343,739.4075300000001 437.09931,612.4997900000001 431.07812,494.9609400000001 C 427.04996,416.3277000000001 427.83799,336.1646000000001 422.82422,254.93555000000012 C 420.94066000000004,224.41964000000013 418.88284000000004,196.56636000000012 423.42969000000005,172.38086000000013 C 425.69164000000006,160.34909000000013 429.56046000000003,149.22234000000012 435.05273000000005,139.96484000000012 C 440.4899500000001,130.80016000000012 447.7954700000001,123.21018000000012 455.71484000000004,118.51563000000013 C 462.87349000000006,114.27202000000013 471.7719,111.64177000000014 480.99805000000003,111.06641000000013 C 490.29192000000006,110.48682000000014 500.27472000000006,111.90631000000013 510.01562,115.08203000000013 C 529.11132,121.30759000000013 546.64897,134.61009000000013 558.3203100000001,151.48633000000012 C 566.0852400000001,162.71406000000013 578.0162700000001,173.19505000000012 594.7617200000001,175.32031000000012 C 611.5071600000001,177.44557000000012 628.4023300000001,168.41434000000012 638.0253900000001,156.81445000000014 L 717.64844,60.833984 C 726.10478,50.640485 731.48985,34.787317 726.80078,19.634766 C 722.11171,4.482214 708.7323,-5.5491664 696.00781,-9.1953125 C 671.66408,-16.170903 647.33771,-23.210064 623.03125,-30.314453 C 588.12023,-40.518388 550.07992,-52.095033 508.81445,-53.275391 M 507.01562,6.738281200000003 C 538.10862,7.776686400000003 571.26032,17.063307000000002 606.19922,27.275391000000003 C 622.6719499999999,32.090106000000006 639.1644699999999,36.834023 655.6542999999999,41.589844 L 600.5976599999999,107.95703 C 582.0379599999999,84.990358 557.1508099999999,67.34088600000001 528.6132799999999,58.037109 C 512.49988,52.783835 495.1106999999999,50.070608 477.26366999999993,51.183594 C 459.3489199999999,52.300803 441.3509199999999,57.279093 425.11718999999994,66.902344 C 407.17184999999995,77.54022499999999 393.35371999999995,92.657037 383.44921999999997,109.35156 C 373.59977,125.95328 367.75629999999995,143.77664000000001 364.46288999999996,161.29492 C 357.89898999999997,196.20951 361.11632,229.12556999999998 362.93749999999994,258.63086 C 367.77529999999996,337.00896 367.0052999999999,416.96104 371.15819999999997,498.0293 C 377.35452,618.98686 392.42783,737.8859199999999 357.98242,842.7207 C 343.67877,886.25394 320.77777,926.66512 289.30859,957.3261699999999 C 258.02152,987.8097999999999 217.15934999999996,1008.7425999999999 175.49219,1012.7578 C 147.30799,1015.4737 118.09172,1010.5887 92.324219,998.85156 C 75.396931,991.14115 59.852197,980.23871 46.429687,967.2168 L 114.55078,915.4804700000001 C 120.58552,926.80758 128.81539,937.0169500000001 139.10547,945.3535200000001 C 164.22575,965.7048600000002 197.59622,972.3708800000002 228.60742,963.2324200000002 C 245.77705,958.1728400000002 260.56059,948.7699900000001 272.54883,937.2031200000001 C 284.4735,925.6976000000001 293.40930000000003,912.3163000000002 300.08008,898.5371100000001 C 313.37003,871.0853400000001 317.65473000000003,842.9364600000001 320.99219,817.7168000000001 C 334.91215,712.5299200000002 335.00252,607.3673000000001 335.17383,503.86328000000015 C 335.29380000000003,431.37830000000014 335.42456,358.80492000000015 334.9375,286.14844000000016 C 334.65435,243.90980000000016 334.34432,203.20655000000016 340.51172,164.97656000000018 C 346.64989,126.92774000000017 359.69449000000003,90.77618500000018 381.78906,63.43554700000017 C 408.54384,30.328203000000173 451.15081,8.87342820000017 493.81641,6.8203125000001705 C 498.17344,6.61064750000017 502.57377,6.589937700000171 507.01562,6.738281500000171 L 507.01562,6.738281200000003 M 105.83008,893.01758 C 105.87168,893.1802299999999 105.93027,893.33758 105.97265999999999,893.5 C 105.76098999999999,892.91038 105.72178,892.59407 105.83008,893.01758" id="path21747" /></svg:g></svg:svg>

<svg:svg xmlns:cc="http://creativecommons.org/ns#" xmlns:dc="http://purl.org/dc/elements/1.1/" xmlns:inkscape="http://www.inkscape.org/namespaces/inkscape" xmlns:rdf="http://www.w3.org/1999/02/22-rdf-syntax-ns#" xmlns:sodipodi="http://sodipodi.sourceforge.net/DTD/sodipodi-0.dtd" xmlns:svg="http://www.w3.org/2000/svg" xml:space="preserve" width="1000" height="1000" version="1.1" style="clip-rule:evenodd;fill-rule:evenodd;image-rendering:optimizeQuality;shape-rendering:geometricPrecision;text-rendering:geometricPrecision" viewBox="0 0 1000 1000" id="svg10" sodipodi:docname="ഽ.svg" inkscape:version="1.0.2 (e86c870879, 2021-01-15)"><svg:metadata id="metadata14"><rdf:RDF><cc:Work rdf:about=""><dc:format>image/svg+xml</dc:format><dc:type rdf:resource="http://purl.org/dc/dcmitype/StillImage" /><dc:title /></cc:Work></rdf:RDF></svg:metadata><sodipodi:namedview pagecolor="#ffffff" bordercolor="#666666" borderopacity="1" objecttolerance="10" gridtolerance="10" guidetolerance="10" inkscape:pageopacity="0" inkscape:pageshadow="2" inkscape:window-width="1920" inkscape:window-height="1007" id="namedview12" showgrid="false" inkscape:zoom="0.6002692" inkscape:cx="300.73619" inkscape:cy="552.64195" inkscape:window-x="1920" inkscape:window-y="0" inkscape:window-maximized="1" inkscape:current-layer="svg10" showguides="true" inkscape:guide-bbox="true" inkscape:document-rotation="0" inkscape:pagecheckerboard="0"><sodipodi:guide position="0,1000" orientation="0,1" id="guide16" inkscape:label="" inkscape:locked="true" inkscape:color="rgb(0,0,255)" /><sodipodi:guide position="1763.3122,2036.1693" orientation="1000,0" id="guide18" /><sodipodi:guide position="0,200" orientation="0,1" id="guide20" inkscape:label="base" inkscape:locked="true" inkscape:color="rgb(0,0,255)" /><inkscape:grid type="xygrid" id="grid24" originx="-473.37552" originy="-489.69235" /><sodipodi:guide position="0,0" orientation="0,1" id="guide34" inkscape:label="bottom" inkscape:locked="true" inkscape:color="rgb(0,0,255)" /><sodipodi:guide position="225.05109,1693.3186" orientation="0,1" id="guide44" inkscape:label="" inkscape:locked="false" inkscape:color="rgb(0,0,255)" /><sodipodi:guide position="0,900" orientation="0,1" id="guide46" inkscape:label="" inkscape:locked="true" inkscape:color="rgb(0,0,255)" /><sodipodi:guide position="711.49383,847.17001" orientation="-1,0" id="guide841" inkscape:label="width" inkscape:locked="false" inkscape:color="rgb(0,0,255)" /></sodipodi:namedview>
 <svg:defs id="defs4"><inkscape:path-effect effect="fillet_chamfer" id="path-effect853" is_visible="true" lpeversion="1" satellites_param="F,0,0,1,0,28.899967,0,1 @ F,0,0,1,0,21.099043,0,1 @ F,0,0,1,0,0,0,1 @ F,0,0,1,0,0,0,1 @ F,0,0,1,0,0,0,1 @ F,0,0,1,0,0,0,1 @ F,0,0,1,0,0,0,1 @ F,0,0,1,0,0,0,1 @ F,0,0,1,0,0,0,1 @ F,0,0,1,0,0,0,1 @ F,0,0,1,0,0,0,1 @ F,0,0,1,0,0,0,1 @ F,0,0,1,0,0,0,1 @ F,0,0,1,0,21.938573,0,1 @ F,0,0,1,0,24.858465,0,1 @ F,0,0,1,0,0,0,1 @ F,0,0,1,0,0,0,1 @ F,0,0,1,0,0,0,1 @ F,0,0,1,0,0,0,1 @ F,0,0,1,0,0,0,1 @ F,0,0,1,0,0,0,1 @ F,0,0,1,0,0,0,1 @ F,0,0,1,0,0,0,1 @ F,0,0,1,0,0,0,1 @ F,0,0,1,0,0,0,1 @ F,0,0,1,0,0,0,1" unit="px" method="auto" mode="F" radius="0" chamfer_steps="1" flexible="false" use_knot_distance="true" apply_no_radius="true" apply_with_radius="true" only_selected="true" hide_knots="false" /><inkscape:path-effect effect="spiro" id="path-effect852" is_visible="true" lpeversion="1" /><inkscape:path-effect effect="spiro" id="path-effect850" is_visible="true" lpeversion="1" /><inkscape:path-effect effect="spiro" id="path-effect851" is_visible="true" lpeversion="1" />
  <svg:style type="text/css" id="style2">
   
    .fil0 {fill:#EF7F1A;fill-rule:nonzero}
   
  </svg:style>
 <inkscape:path-effect effect="spiro" id="path-effect1214" is_visible="true" lpeversion="1" /><inkscape:path-effect effect="spiro" id="path-effect1195" is_visible="true" lpeversion="1" /><inkscape:path-effect effect="spiro" id="path-effect992" is_visible="true" lpeversion="1" /><inkscape:path-effect effect="spiro" id="path-effect1060" is_visible="true" lpeversion="1" /><inkscape:path-effect effect="spiro" id="path-effect1047" is_visible="true" lpeversion="1" /><inkscape:path-effect effect="spiro" id="path-effect1085" is_visible="true" lpeversion="1" /><inkscape:path-effect effect="spiro" id="path-effect1286" is_visible="true" lpeversion="1" /><inkscape:path-effect effect="spiro" id="path-effect1305" is_visible="true" lpeversion="1" /></svg:defs>
 
<svg:g id="path849"><svg:path style="color:#000000;clip-rule:nonzero;fill:#1a5fb4;fill-rule:nonzero;stroke-linecap:round;stroke-linejoin:round;-inkscape-stroke:none;shape-rendering:auto" d="m 508.81445,-53.275391 c -5.89506,-0.168622 -11.85579,-0.125964 -17.88281,0.164063 -60.28663,2.901059 -117.78091,31.774717 -155.81055,78.833984 -30.89088,38.225508 -46.55604,84.522744 -53.84375,129.697264 -7.25848,44.99335 -6.61983,89.07206 -6.33789,131.13086 0.48478,72.31629 0.35436,144.72205 0.23438,217.21289 -0.17131,103.50403 -0.42429,206.04975 -13.66211,306.08203 -3.15923,23.87285 -7.14926,45.42665 -15.4375,62.54688 -4.11832,8.50681 -9.29172,15.94615 -15.18555,21.63281 -5.83026,5.62533 -12.65935,9.71503 -19.24023,11.6543 -11.13491,3.28126 -25.75373,0.3601 -34.77344,-6.94727 -6.01301,-4.87147 -10.84981,-12.49794 -12.91602,-20.57812 -2.63214,-10.2934 -7.56874,-23.41392 -23.2539,-30.96875 -15.68516,-7.55484 -33.6893,-1.32663 -43.367189,6.02343 L 4.4804687,923.73242 c -23.8975607,18.14949 -29.8353277,55.04077 -7.8867187,78.60738 19.977034,21.4498 44.092772,38.9211 70.859375,51.1133 35.507035,16.1736 74.957745,22.7699 113.794925,19.0274 57.42869,-5.5341 109.91317,-33.1889 149.93164,-72.1797 39.83637,-38.81339 67.0322,-87.80443 83.80468,-138.85158 40.09906,-122.04169 22.11494,-248.94943 16.09375,-366.48828 -4.02816,-78.63324 -3.24013,-158.79634 -8.2539,-240.02539 -1.88356,-30.51591 -3.94138,-58.36919 0.60547,-82.55469 2.26195,-12.03177 6.13077,-23.15852 11.62304,-32.41602 5.43722,-9.16468 12.74274,-16.75466 20.66211,-21.44921 7.15865,-4.24361 16.05706,-6.87386 25.28321,-7.44922 9.29387,-0.57959 19.27667,0.8399 29.01757,4.01562 19.0957,6.22556 36.63335,19.52806 48.30469,36.4043 7.76493,11.22773 19.69596,21.70872 36.44141,23.83398 16.74544,2.12526 33.64061,-6.90597 43.26367,-18.50586 L 717.64844,60.833984 C 726.10478,50.640485 731.48985,34.787317 726.80078,19.634766 722.11171,4.482214 708.7323,-5.5491664 696.00781,-9.1953125 671.66408,-16.170903 647.33771,-23.210064 623.03125,-30.314453 588.12023,-40.518388 550.07992,-52.095033 508.81445,-53.275391 Z m -1.79883,60.0136722 c 31.093,1.0384052 64.2447,10.3250258 99.1836,20.5371098 16.47273,4.814715 32.96525,9.558632 49.45508,14.314453 l -55.05664,66.367186 c -18.5597,-22.966672 -43.44685,-40.616144 -71.98438,-49.919921 -16.1134,-5.253274 -33.50258,-7.966501 -51.34961,-6.853515 -17.91475,1.117209 -35.91275,6.095499 -52.14648,15.71875 -17.94534,10.637881 -31.76347,25.754693 -41.66797,42.449216 -9.84945,16.60172 -15.69292,34.42508 -18.98633,51.94336 -6.5639,34.91459 -3.34657,67.83065 -1.52539,97.33594 4.8378,78.3781 4.0678,158.33018 8.2207,239.39844 6.19632,120.95756 21.26963,239.85662 -13.17578,344.6914 -14.30365,43.53324 -37.20465,83.94442 -68.67383,114.60547 -31.28707,30.48363 -72.14924,51.41643 -113.8164,55.43163 -28.1842,2.7159 -57.40047,-2.1691 -83.167971,-13.90624 C 75.396931,991.14115 59.852197,980.23871 46.429687,967.2168 l 68.121093,-51.73633 c 6.03474,11.32711 14.26461,21.53648 24.55469,29.87305 25.12028,20.35134 58.49075,27.01736 89.50195,17.8789 17.16963,-5.05958 31.95317,-14.46243 43.94141,-26.0293 11.92467,-11.50552 20.86047,-24.88682 27.53125,-38.66601 13.28995,-27.45177 17.57465,-55.60065 20.91211,-80.82031 13.91996,-105.18688 14.01033,-210.3495 14.18164,-313.85352 0.11997,-72.48498 0.25073,-145.05836 -0.23633,-217.71484 -0.28315,-42.23864 -0.59318,-82.94189 5.57422,-121.17188 6.13817,-38.04882 19.18277,-74.200375 41.27734,-101.541013 26.75478,-33.107344 69.36175,-54.5621188 112.02735,-56.6152345 4.35703,-0.209665 8.75736,-0.2303748 13.19921,-0.082031 z M 105.83008,893.01758 c 0.0416,0.16265 0.10019,0.32 0.14258,0.48242 -0.21167,-0.58962 -0.25088,-0.90593 -0.14258,-0.48242 z" id="path21695" /></svg:g></svg:svg>
